icons/tokens/0xA64BD6C70Cb9051F6A9ba1F163Fdc07E0DfB5F84/logo.svg

<svg width="32" height="32" viewBox="0 0 32 32" fill="none" xmlns="http://www.w3.org/2000/svg">
<path fill-rule="evenodd" clip-rule="evenodd" d="M29 16C29 14.2986 28.6615 12.5971 28.0104 11.0252C27.3594 9.4532 26.3956 8.01072 25.1923 6.8077C23.9893 5.60442 22.5468 4.6406 20.9748 3.98956C19.4029 3.33852 17.7014 3 16 3C14.2986 3 12.5971 3.33852 11.0252 3.98956C9.4532 4.6406 8.01072 5.60442 6.8077 6.8077C5.60442 8.01072 4.6406 9.4532 3.98956 11.0252C3.33852 12.5971 3 14.2986 3 16C3 17.7014 3.33852 19.4029 3.98956 20.9748C4.6406 22.5468 5.60442 23.9893 6.8077 25.1923C8.01072 26.3956 9.4532 27.3594 11.0252 28.0104C12.5971 28.6615 14.2986 29 16 29C17.7014 29 19.4029 28.6615 20.9748 28.0104C22.5468 27.3594 23.9893 26.3956 25.1923 25.1923C26.3956 23.9893 27.3594 22.5468 28.0104 20.9748C28.6615 19.4029 29 17.7014 29 16Z" fill="white"/>
<path fill-rule="evenodd" clip-rule="evenodd" d="M14.1659 7.14882L15.9998 6.10355L17.8341 7.14882L22.8327 10.0071L24.6666 11.0526V20.9476L22.8327 21.9929L17.8793 24.8543L16.0451 25.8964L14.2111 24.8543L9.1673 21.9929L7.33331 20.9476V11.0526L9.1673 10.0071L14.1659 7.14882ZM11.0016 13.1403V18.8599L15.9999 21.721L20.9984 18.8599V13.1403L15.9999 10.2789L11.0016 13.1403Z" fill="#2A5ADA"/>
<path fill-rule="evenodd" clip-rule="evenodd" d="M30.7821 9.87712C31.5834 11.8118 32 13.9059 32 16C32 18.0941 31.5834 20.1882 30.7821 22.1229C29.9808 24.0576 28.7946 25.833 27.3136 27.3136C25.833 28.7946 24.0576 29.9808 22.1229 30.7821C20.1882 31.5834 18.0941 32 16 32C13.9059 32 11.8118 31.5834 9.87712 30.7821C7.9424 29.9808 6.16704 28.7946 4.6864 27.3136C3.20544 25.833 2.0192 24.0576 1.21792 22.1229C0.41664 20.1882 0 18.0941 0 16C0 13.9059 0.41664 11.8118 1.21792 9.87712C2.0192 7.9424 3.20544 6.16704 4.6864 4.6864C6.16704 3.20544 7.9424 2.0192 9.87712 1.21792C11.8118 0.41664 13.9059 0 16 0C18.0941 0 20.1882 0.41664 22.1229 1.21792C24.0576 2.0192 25.833 3.20544 27.3136 4.6864C28.7946 6.16704 29.9808 7.9424 30.7821 9.87712ZM28.9344 10.6424C29.6354 12.3354 30 14.1676 30 16C30 17.8324 29.6354 19.6646 28.9344 21.3576C28.2332 23.0504 27.195 24.6038 25.8996 25.8996C24.6038 27.195 23.0504 28.2332 21.3576 28.9344C19.6646 29.6354 17.8324 30 16 30C14.1676 30 12.3354 29.6354 10.6424 28.9344C8.9496 28.2332 7.39622 27.195 6.10044 25.8996C4.80498 24.6038 3.7668 23.0504 3.06556 21.3576C2.36462 19.6646 2 17.8324 2 16C2 14.1676 2.36462 12.3354 3.06556 10.6424C3.7668 8.9496 4.80498 7.39622 6.10044 6.10044C7.39622 4.80498 8.9496 3.7668 10.6424 3.06556C12.3354 2.36462 14.1676 2 16 2C17.8324 2 19.6646 2.36462 21.3576 3.06556C23.0504 3.7668 24.6038 4.80498 25.8996 6.10044C27.195 7.39622 28.2332 8.9496 28.9344 10.6424Z" fill="url(#paint0_linear)"/>
<defs>
<linearGradient id="paint0_linear" x1="19.008" y1="-4.64" x2="-4.8" y2="15.392" gradientUnits="userSpaceOnUse">
<stop stop-color="#B6509E"/>
<stop offset="1" stop-color="#2EBAC6"/>
</linearGradient>
</defs>
</svg>

<svg width="32" height="32" fill="none" xmlns="http://www.w3.org/2000/svg"><path fill-rule="evenodd" clip-rule="evenodd" d="M29 16c0-1.701-.338-3.403-.99-4.975a13.037 13.037 0 00-2.818-4.217 13.037 13.037 0 00-4.217-2.818A13.044 13.044 0 0016 3c-1.701 0-3.403.339-4.975.99a13.038 13.038 0 00-4.217 2.818 13.038 13.038 0 00-2.818 4.217A13.044 13.044 0 003 16c0 1.701.339 3.403.99 4.975a13.037 13.037 0 002.818 4.217 13.037 13.037 0 004.217 2.818c1.572.651 3.274.99 4.975.99 1.701 0 3.403-.338 4.975-.99a13.036 13.036 0 004.217-2.818 13.036 13.036 0 002.818-4.217C28.661 19.403 29 17.7 29 16z" fill="#fff"/><path fill-rule="evenodd" clip-rule="evenodd" d="M14.166 7.149L16 6.104l1.834 1.045 4.999 2.858 1.834 1.046v9.895l-1.834 1.045-4.954 2.861-1.834 1.042-1.834-1.042-5.044-2.861-1.834-1.045v-9.895l1.834-1.046 4.999-2.858zm-3.164 5.991v5.72L16 21.72l4.998-2.861v-5.72L16 10.28l-4.998 2.861z" fill="#2A5ADA"/><path fill-rule="evenodd" clip-rule="evenodd" d="M30.782 9.877A16.054 16.054 0 0132 16c0 2.094-.417 4.188-1.218 6.123a16.046 16.046 0 01-3.468 5.19 16.046 16.046 0 01-5.191 3.47A16.054 16.054 0 0116 32c-2.094 0-4.188-.417-6.123-1.218a16.046 16.046 0 01-5.19-3.468 16.046 16.046 0 01-3.47-5.191A16.055 16.055 0 010 16c0-2.094.417-4.188 1.218-6.123a16.047 16.047 0 013.468-5.19 16.047 16.047 0 015.191-3.47A16.054 16.054 0 0116 0c2.094 0 4.188.417 6.123 1.218a16.046 16.046 0 015.19 3.468 16.046 16.046 0 013.47 5.191zm-1.848.765A14.05 14.05 0 0130 16a14.05 14.05 0 01-1.066 5.358A14.053 14.053 0 0125.9 25.9a14.053 14.053 0 01-4.542 3.034A14.05 14.05 0 0116 30a14.05 14.05 0 01-5.358-1.066A14.052 14.052 0 016.1 25.9a14.053 14.053 0 01-3.034-4.542A14.052 14.052 0 012 16c0-1.832.365-3.665 1.066-5.358A14.052 14.052 0 016.1 6.1a14.052 14.052 0 014.542-3.034A14.052 14.052 0 0116 2c1.832 0 3.665.365 5.358 1.066A14.053 14.053 0 0125.9 6.1a14.052 14.052 0 013.034 4.542z" fill="url(#paint0_linear)"/><defs><linearGradient id="paint0_linear" x1="19.008" y1="-4.64" x2="-4.8" y2="15.392" gradientUnits="userSpaceOnUse"><stop stop-color="#B6509E"/><stop offset="1" stop-color="#2EBAC6"/></linearGradient></defs></svg>
